!!!OTL: Lied der Siegerlaender Hammerschmiede Es ist kein Doerfchen so kleine
!!!ARE: Europa, Mitteleuropa, Deutschland, Westfalen, Muenster
!!!SCT: D0266
!!!YEM: Copyright 1995, estate of Helmut Schaffrath.
**kern
*ICvox
*Ivox
!! Mixed meters:  6/8; 4/4
*M4/4
*k[f#]
*G:
{8d
=1
4g
8g
8g
8f#
8e
=2
4.d
4B}
{8d
=3
8g
8g
8g
8g
8f#
8e
=4
4.d
4B
8r}
=5
{4b
4b
8b
8b
4b
=6
8b
8b
8ee
8dd
4dd
4cc}
=7
{8a
8a
4a
8a
8a
8a
8a
=8
8a
8a
8ee
8dd
4dd
4cc
=9
1r}
=10
{4g
8g
8g
4g
4d
=11
4dd
8dd
8dd
4b
4r}
=12
*M6/8
{8b
8b
8b
8b
8b
8b
=13
8b
8a
8b
4dd
8cc}
=14
{8a
8a
8a
8a
8a
8a
=15
8a
8g
8a
4.b}
=16
{8b
8b
8b
8b
8b
8b
=17
8b
8a
8b
4dd
8cc}
=18
{8a
8a
8a
8a
8a
8a
=19
8a
8g
8a
4g}
==
!!!AGN: Trink - Lied, Zech - Lied
!! rhythmische Korrekturen in Zeile 261, 262 und 263 (Pause ergaenzt) ;
!!    263 und 265; Tonrepetitionen ; Pause - Takt in Zeile 262 fuer
!!    szenisches Spiel vorgesehen; Refrain (ab Zeile 264) mehrstimmig
!!    Inzipit = Variante zum Lied (?)
!!!ONB: ESAC (Essen Associative Code) Database: DVA
!!!AMT: irregular
!!!AIN: vox
!!!EED: Helmut Schaffrath
!!!EEV: 1.0
*-
